dist/images/svg-icons/split-v.svg

<?xml version="1.0" encoding="utf-8"?>
<!-- Generated by IcoMoon.io -->
<!DOCTYPE svg PUBLIC "-//W3C//DTD SVG 1.1//EN" "http://www.w3.org/Graphics/SVG/1.1/DTD/svg11.dtd">
<svg version="1.1" xmlns="http://www.w3.org/2000/svg" xmlns:xlink="http://www.w3.org/1999/xlink" width="17" height="17" viewBox="0 0 17 17">
<g>
</g>
	<path d="M10.646 13.146l0.707 0.707-2.853 2.854-2.854-2.854 0.707-0.707 1.647 1.647v-3.772h1v3.772l1.646-1.647zM8 2.207v3.772h1v-3.772l1.646 1.646 0.707-0.707-2.853-2.853-2.854 2.853 0.707 0.707 1.647-1.646zM0 8v1h17v-1h-17z" fill="#000000" />
</svg>

<svg xmlns="http://www.w3.org/2000/svg" width="17" height="17"><path d="M10.646 13.146l.707.707L8.5 16.707l-2.854-2.854.707-.707L8 14.793v-3.772h1v3.772l1.646-1.647zM8 2.207v3.772h1V2.207l1.646 1.646.707-.707L8.5.293 5.646 3.146l.707.707L8 2.207zM0 8v1h17V8H0z"/></svg>
